imagens/logo-facebook.svg

<svg xmlns="http://www.w3.org/2000/svg" xmlns:xlink="http://www.w3.org/1999/xlink" width="500" zoomAndPan="magnify" viewBox="0 0 375 374.999991" height="500" preserveAspectRatio="xMidYMid meet" version="1.0"><defs><filter x="0%" y="0%" width="100%" height="100%" id="5d3894ec54"><feColorMatrix values="0 0 0 0 1 0 0 0 0 1 0 0 0 0 1 0 0 0 1 0" color-interpolation-filters="sRGB"/></filter><mask id="89c89d25f1"><g filter="url(#5d3894ec54)"><rect x="-37.5" width="450" fill="#000000" y="-37.499999" height="449.999989" fill-opacity="0.6"/></g></mask><clipPath id="70db3b8ee3"><path d="M 0.238281 0.921875 L 356.878906 0.921875 L 356.878906 335 L 0.238281 335 Z M 0.238281 0.921875 " clip-rule="nonzero"/></clipPath><clipPath id="3c2ff01421"><rect x="0" width="357" y="0" height="335"/></clipPath><mask id="fd77949119"><g filter="url(#5d3894ec54)"><rect x="-37.5" width="450" fill="#000000" y="-37.499999" height="449.999989" fill-opacity="0.5"/></g></mask><clipPath id="14faeec757"><path d="M 1 0.0390625 L 296.199219 0.0390625 L 296.199219 308 L 1 308 Z M 1 0.0390625 " clip-rule="nonzero"/></clipPath><clipPath id="51c7acbca7"><rect x="0" width="297" y="0" height="309"/></clipPath></defs><path fill="#ffffff" d="M 36.492188 97.652344 C -90.398438 295.957031 217.988281 459.996094 338.3125 269.339844 C 452.578125 88.273438 128.175781 -85 36.492188 97.652344 " fill-opacity="1" fill-rule="nonzero"/><g mask="url(#89c89d25f1)"><g transform="matrix(1, 0, 0, 1, 6, 19)"><g clip-path="url(#3c2ff01421)"><g clip-path="url(#70db3b8ee3)"><path fill="#004aad" d="M 30.492188 78.652344 C -96.398438 276.957031 211.988281 440.996094 332.3125 250.339844 C 446.578125 69.273438 122.175781 -104 30.492188 78.652344 " fill-opacity="1" fill-rule="nonzero"/></g></g></g></g><g mask="url(#fd77949119)"><g transform="matrix(1, 0, 0, 1, 35, 35)"><g clip-path="url(#51c7acbca7)"><g clip-path="url(#14faeec757)"><path fill="#004aad" d="M 125.0625 5.015625 C -80.457031 36.105469 -9.980469 336.414062 186.667969 305.320312 C 373.359375 275.816406 299.777344 -40.359375 125.0625 5.015625 " fill-opacity="1" fill-rule="nonzero"/></g></g></g></g><path fill="#ffffff" d="M 200.746094 151.035156 L 200.746094 133.144531 C 200.746094 130.476562 200.890625 128.382812 201.109375 126.941406 C 201.324219 125.496094 201.902344 124.054688 202.839844 122.613281 C 203.703125 121.167969 205.148438 120.230469 207.09375 119.65625 C 209.042969 119.078125 211.710938 118.859375 214.957031 118.859375 L 232.847656 118.859375 L 232.847656 83.082031 L 204.28125 83.082031 C 187.761719 83.082031 175.859375 86.976562 168.644531 94.839844 C 161.433594 102.703125 157.824219 114.246094 157.824219 129.539062 L 157.824219 151.035156 L 136.402344 151.035156 L 136.402344 186.8125 L 157.824219 186.8125 L 157.824219 290.546875 L 200.746094 290.546875 L 200.746094 186.8125 L 229.3125 186.8125 L 233.0625 151.035156 Z M 200.746094 151.035156 " fill-opacity="1" fill-rule="nonzero"/></svg>

<svg xmlns="http://www.w3.org/2000/svg" width="500" height="500" version="1.0" viewBox="0 0 375 375"><defs><clipPath id="d"><path d="M.238.922h356.64V335H.239Zm0 0"/></clipPath><clipPath id="c"><path d="M0 0h357v335H0z"/></clipPath><clipPath id="g"><path d="M1 .04h295.2V308H1Zm0 0"/></clipPath><clipPath id="f"><path d="M0 0h297v309H0z"/></clipPath><mask id="b"><g filter="url(#a)"><path fill-opacity=".6" d="M-37.5-37.5h450v450h-450z"/></g></mask><mask id="e"><g filter="url(#a)"><path fill-opacity=".5" d="M-37.5-37.5h450v450h-450z"/></g></mask><filter id="a" width="100%" height="100%" x="0%" y="0%"><feColorMatrix color-interpolation-filters="sRGB" values="0 0 0 0 1 0 0 0 0 1 0 0 0 0 1 0 0 0 1 0"/></filter></defs><path fill="#fff" d="M36.492 97.652c-126.89 198.305 181.496 362.344 301.82 171.688C452.579 88.273 128.177-85 36.493 97.652"/><g mask="url(#b)"><g clip-path="url(#c)" transform="translate(6 19)"><g clip-path="url(#d)"><path fill="#004aad" d="M30.492 78.652c-126.89 198.305 181.496 362.344 301.82 171.688C446.579 69.273 122.177-104 30.493 78.652"/></g></g></g><g mask="url(#e)"><g clip-path="url(#f)" transform="translate(35 35)"><g clip-path="url(#g)"><path fill="#004aad" d="M125.063 5.016C-80.458 36.106-9.98 336.414 186.667 305.32c186.691-29.504 113.11-345.68-61.606-300.304"/></g></g></g><path fill="#fff" d="M200.746 151.035v-17.89c0-2.668.145-4.762.363-6.204.215-1.445.793-2.886 1.73-4.328.864-1.445 2.31-2.383 4.255-2.957 1.949-.578 4.617-.797 7.863-.797h17.89V83.082h-28.566c-16.52 0-28.422 3.895-35.636 11.758-7.211 7.863-10.82 19.406-10.82 34.7v21.495h-21.423v35.778h21.422v103.734h42.922V186.812h28.566l3.75-35.777Zm0 0"/></svg>
